wp-content/themes/sd-accesslasers/public/images/footer/phone.svg

<?xml version="1.0" encoding="UTF-8"?>
<svg width="24px" height="24px" viewBox="0 0 24 24" version="1.1" xmlns="http://www.w3.org/2000/svg" xmlns:xlink="http://www.w3.org/1999/xlink">
    <!-- Generator: Sketch 55 (78076) - https://sketchapp.com -->
    <title>right copy</title>
    <desc>Created with Sketch.</desc>
    <g id="Symbols" stroke="none" stroke-width="1" fill="none" fill-rule="evenodd">
        <g id="Footer" transform="translate(-1346.000000, -577.000000)" fill="#ED3D4A" fill-rule="nonzero">
            <g id="right">
                <g transform="translate(795.000000, 0.000000)">
                    <g id="icons" transform="translate(190.000000, 577.000000)">
                        <g id="Phone" transform="translate(361.000000, 0.000000)">
                            <g id="phone" transform="translate(12.000000, 12.000000) scale(-1, 1) translate(-12.000000, -12.000000) ">
                                <path d="M22.8678363,1.17426901 L18.1520468,0.0842105263 C17.4643275,-0.0748538012 16.7578947,0.280701754 16.477193,0.930994152 L14.3017544,6.00701754 C14.0444444,6.60116959 14.2175439,7.30292398 14.7181287,7.71461988 L17.2397661,9.77777778 C15.6491228,13.0152047 13.0152047,15.6538012 9.77309942,17.2444444 L7.70994152,14.722807 C7.29824561,14.2222222 6.59649123,14.0491228 6.00233918,14.3064327 L0.930994152,16.4818713 C0.280701754,16.7625731 -0.0748538012,17.4643275 0.0842105263,18.1520468 L1.16959064,22.8631579 C1.32397661,23.5321637 1.91345029,24 2.59649123,24 C14.3953216,24 24,14.4467836 24,2.59649123 C24,1.91345029 23.5321637,1.32397661 22.8678363,1.17426901 Z M2.6245614,22.502924 L1.54853801,17.8432749 L6.57309942,15.6912281 L9.35672515,19.097076 C14.2035088,16.8233918 16.8280702,14.1894737 19.0923977,9.36140351 L15.6865497,6.57777778 L17.8385965,1.55321637 L22.4982456,2.62923977 C22.4888889,13.6 13.5953216,22.4888889 2.6245614,22.502924 Z" id="Shape"></path>
                            </g>
                        </g>
                    </g>
                </g>
            </g>
        </g>
    </g>
</svg>

<svg width="24" height="24" viewBox="0 0 24 24" version="1.1" xmlns="http://www.w3.org/2000/svg"><g id="Symbols" stroke="none" stroke-width="1" fill="none" fill-rule="evenodd"><g id="Footer" transform="translate(-1346 -577)" fill="#ED3D4A" fill-rule="nonzero"><g transform="translate(795)" id="right"><g id="icons" transform="translate(190 577)"><g id="Phone" transform="translate(361)"><g id="phone" transform="matrix(-1 0 0 1 24 0)"><path d="M22.868 1.174L18.152.084a1.466 1.466 0 0 0-1.675.847l-2.175 5.076a1.467 1.467 0 0 0 .416 1.708l2.522 2.063a16.374 16.374 0 0 1-7.467 7.466L7.71 14.723a1.467 1.467 0 0 0-1.708-.417L.931 16.482a1.46 1.46 0 0 0-.847 1.67l1.086 4.711A1.461 1.461 0 0 0 2.596 24C14.396 24 24 14.447 24 2.596c0-.683-.468-1.272-1.132-1.422zM2.625 22.503l-1.076-4.66 5.024-2.152 2.784 3.406c4.847-2.274 7.471-4.908 9.735-9.736l-3.405-2.783 2.152-5.025 4.66 1.076c-.01 10.971-8.904 19.86-19.874 19.874z" id="Shape"/></g></g></g></g></g></g></svg>
